proprietary/assets/icons/activiteiten/persoon-onder-tafel.svg

<svg height="64" viewBox="0 0 64 64" width="64" xmlns="http://www.w3.org/2000/svg"><path d="m0 0h64v64h-64z" fill="none"/><path d="m60.5 16h-57c-.3 0-.5.2-.5.5v3c0 .3.2.5.5.5h2.5v29h8v-29h36v29h8v-29h2.5c.3 0 .5-.2.5-.5v-3c0-.3-.2-.5-.5-.5zm-31.2 12.9c-5.3 3.9-7.7 7.1-8.4 8.9-.7 1.9-.4 4.3 2.8 5.1 2.7.7 7.2 1.8 7.2 1.8s-5.5.3-8.4.5c-3 .2-4.8 1.5-4.7 3.7h16c2.7 0 4-2 4.1-4 .1-1.5-.6-2.8-2.2-3.7-2.5-1.4-4.6-2.3-4.6-2.3l4.6-4.4 4.9 12.2c.7 1.8 2.7 2.6 4.5 1.9 0 0-4.6-14.1-5.7-17.6-.9-3.2-5.1-5.8-10.1-2.1zm15.9-6.4c-1.9-1.5-3.9-.9-5.4 1-1.5 2-1.4 4 .5 5.4 1.8 1.4 3.9 1 5.3-.9 1.7-2.2 1.4-4.1-.4-5.5z"/></svg>

<?xml version="1.0" encoding="utf-8"?>
<!-- Generator: Adobe Illustrator 21.0.2, SVG Export Plug-In . SVG Version: 6.00 Build 0)  -->
<svg version="1.2" baseProfile="tiny" xmlns="http://www.w3.org/2000/svg" xmlns:xlink="http://www.w3.org/1999/xlink" x="0px"
	 y="0px" width="64px" height="64px" viewBox="0 0 64 64" xml:space="preserve">
<g id="Box">
	<rect fill="none" width="64" height="64"/>
</g>
<g id="Icon">
	<g>
		<path d="M60.5,16h-57C3.2,16,3,16.2,3,16.5v3C3,19.8,3.2,20,3.5,20H6v29h8V20h36v29h8V20h2.5c0.3,0,0.5-0.2,0.5-0.5v-3
			C61,16.2,60.8,16,60.5,16z M29.3,28.9c-5.3,3.9-7.7,7.1-8.4,8.9c-0.7,1.9-0.4,4.3,2.8,5.1c2.7,0.7,7.2,1.8,7.2,1.8
			s-5.5,0.3-8.4,0.5c-3,0.2-4.8,1.5-4.7,3.7l16,0c2.7,0,4-2,4.1-4c0.1-1.5-0.6-2.8-2.2-3.7c-2.5-1.4-4.6-2.3-4.6-2.3l4.6-4.4
			l4.9,12.2c0.7,1.8,2.7,2.6,4.5,1.9c0,0-4.6-14.1-5.7-17.6C38.5,27.8,34.3,25.2,29.3,28.9z M45.2,22.5c-1.9-1.5-3.9-0.9-5.4,1
			c-1.5,2-1.4,4,0.5,5.4c1.8,1.4,3.9,1,5.3-0.9C47.3,25.8,47,23.9,45.2,22.5z"/>
	</g>
</g>
</svg>
